packages/tokens/icons/targetMiss/size32Px.svg

<svg viewBox="0 0 32 32" fill="none" xmlns="http://www.w3.org/2000/svg" width="1em" height="1em"><path fill-rule="evenodd" clip-rule="evenodd" d="M3.99995 16.5C3.99995 10.1487 9.14868 5 15.5 5C16.4935 5 17.4568 5.12587 18.3753 5.36227C18.6428 5.4311 18.9153 5.27011 18.9842 5.00268C19.053 4.73526 18.892 4.46266 18.6246 4.39383C17.6254 4.13665 16.5782 4 15.5 4C8.5964 4 2.99995 9.59644 2.99995 16.5C2.99995 23.4036 8.5964 29 15.5 29C22.4035 29 28 23.4036 28 16.5C28 15.4217 27.8633 14.3746 27.6061 13.3754C27.5373 13.1079 27.2647 12.947 26.9973 13.0158C26.7298 13.0846 26.5689 13.3572 26.6377 13.6246C26.8741 14.5431 27 15.5065 27 16.5C27 22.8513 21.8512 28 15.5 28C9.14868 28 3.99995 22.8513 3.99995 16.5ZM15.5 24C19.6421 24 23 20.6421 23 16.5C23 12.3579 19.6421 9 15.5 9C11.3578 9 7.99995 12.3579 7.99995 16.5C7.99995 20.6421 11.3578 24 15.5 24ZM15.5 25C20.1944 25 24 21.1944 24 16.5C24 11.8056 20.1944 8 15.5 8C10.8055 8 6.99995 11.8056 6.99995 16.5C6.99995 21.1944 10.8055 25 15.5 25ZM19 16.5C19 18.433 17.433 20 15.5 20C13.567 20 12 18.433 12 16.5C12 14.567 13.567 13 15.5 13C17.433 13 19 14.567 19 16.5ZM20 16.5C20 18.9853 17.9852 21 15.5 21C13.0147 21 11 18.9853 11 16.5C11 14.0147 13.0147 12 15.5 12C17.9852 12 20 14.0147 20 16.5ZM16 16.5C16 16.7761 15.7761 17 15.5 17C15.2238 17 15 16.7761 15 16.5C15 16.2239 15.2238 16 15.5 16C15.7761 16 16 16.2239 16 16.5ZM17 16.5C17 17.3284 16.3284 18 15.5 18C14.6715 18 14 17.3284 14 16.5C14 15.6716 14.6715 15 15.5 15C16.3284 15 17 15.6716 17 16.5Z" fill="currentColor"/><path fill-rule="evenodd" clip-rule="evenodd" d="M26.5286 4.73759C26.6237 5.12604 26.941 5.4205 27.3355 5.48625L28.4188 5.66682L26.2635 7.82215C26.1636 7.92205 26.0261 7.97502 25.8849 7.96796L24.111 7.87923L24.0029 6.078C23.9944 5.93523 24.0474 5.79563 24.1485 5.69449L26.2488 3.59425L26.5286 4.73759ZM23.8401 8.86693L25.835 8.96672C26.2583 8.98789 26.6708 8.82897 26.9706 8.52926L29.813 5.68693C30.1005 5.39936 29.9428 4.90704 29.5416 4.84018L27.4999 4.49986L27.009 2.49378C26.9163 2.11521 26.4453 1.9835 26.1697 2.25909L23.4414 4.98737C23.138 5.29078 22.979 5.70959 23.0047 6.13791L23.1265 8.16635L22.1464 9.14643C21.9511 9.34169 21.9511 9.65827 22.1464 9.85353C22.3416 10.0488 22.6582 10.0488 22.8535 9.85353L23.8401 8.86693Z" fill="currentColor"/></svg>

<svg xmlns="http://www.w3.org/2000/svg" fill="none" viewBox="0 0 32 32" width="1em" height="1em"><path fill="currentColor" fill-rule="evenodd" d="M4 16.5C4 10.149 9.149 5 15.5 5c.994 0 1.957.126 2.875.362a.5.5 0 0 0 .25-.968A12.54 12.54 0 0 0 15.5 4C8.596 4 3 9.596 3 16.5S8.596 29 15.5 29 28 23.404 28 16.5a12.52 12.52 0 0 0-.394-3.125.5.5 0 1 0-.968.25c.236.918.362 1.882.362 2.875C27 22.851 21.851 28 15.5 28S4 22.851 4 16.5ZM15.5 24a7.5 7.5 0 1 0 0-15 7.5 7.5 0 0 0 0 15Zm0 1a8.5 8.5 0 1 0 0-17 8.5 8.5 0 0 0 0 17Zm3.5-8.5a3.5 3.5 0 1 1-7 0 3.5 3.5 0 0 1 7 0Zm1 0a4.5 4.5 0 1 1-9 0 4.5 4.5 0 0 1 9 0Zm-4 0a.5.5 0 1 1-1 0 .5.5 0 0 1 1 0Zm1 0a1.5 1.5 0 1 1-3 0 1.5 1.5 0 0 1 3 0Z" clip-rule="evenodd"/><path fill="currentColor" fill-rule="evenodd" d="M26.529 4.738a1 1 0 0 0 .806.748l1.084.18-2.155 2.156a.5.5 0 0 1-.38.146l-1.773-.089-.108-1.801a.5.5 0 0 1 .145-.384l2.1-2.1.28 1.144ZM23.84 8.867l1.995.1a1.5 1.5 0 0 0 1.136-.438l2.842-2.842a.5.5 0 0 0-.271-.847L27.5 4.5l-.491-2.006a.5.5 0 0 0-.84-.235l-2.728 2.728a1.5 1.5 0 0 0-.436 1.15l.122 2.03-.98.98a.5.5 0 1 0 .707.707l.986-.987Z" clip-rule="evenodd"/></svg>
